X:636
T: WAS HAB ICH DENN MEINEM FEINSLIEBCHEN GETHAN
N: E0585
O: Europa, Mitteleuropa, Deutschland, Hessen, Odenwald; Bergstrasse
R: Liebes - Lied
M: 4/4
L: 1/16
K: Eb
E2G2 | B4B2B2B2c2B2A2 | A2G2G2G2B4A2
G2 | F4F2F2c4B2A2 | A2G2G2G2G4z2
B2 | B2F2F2F2B4B2B2 | c4c4d4z2
B2 | e4d2c2B3cB2A2 | G4F2F2E4

